dist/images/svg/sprite/phone-icon.svg

<svg width="20" height="22" viewBox="0 0 20 22" fill="none" xmlns="http://www.w3.org/2000/svg">
<path d="M5.61538 3.47278L6.88881 5.43479C7.14189 5.82547 7.05892 6.3505 6.69846 6.63892L5.13054 7.89155C4.79031 8.16063 4.69254 8.64466 4.90055 9.03052C5.36089 9.88048 5.7971 10.8827 7.95637 13.1033C10.1156 15.3238 11.0943 15.769 11.9218 16.2418C12.2975 16.4554 12.7688 16.355 13.0308 16.0055L14.2504 14.3952C14.5312 14.025 15.0424 13.9398 15.4228 14.1997L17.3938 15.549L19.611 17.0673C19.9988 17.3328 20.1152 17.8642 19.8755 18.2746L18.8248 20.0733C18.5459 20.5595 18.0957 20.9168 17.5673 21.0713C15.8211 21.5632 11.9694 21.6627 5.79604 15.3224C-0.377319 8.98198 -0.280758 5.02574 0.198182 3.23231C0.348649 2.68962 0.696574 2.22717 1.16989 1.94072L2.92127 0.861605C3.32088 0.615476 3.83829 0.73503 4.09677 1.13325L5.61538 3.47278Z" fill="#F6A21E"/>
<path d="M11.3788 3.21207C11.1883 3.21207 11.0339 3.37062 11.0339 3.56624C11.0339 3.76185 11.1883 3.9204 11.3788 3.9204C14.6147 3.9241 17.2372 6.61743 17.2407 9.94099C17.2407 10.1366 17.3951 10.2952 17.5856 10.2952C17.776 10.2952 17.9304 10.1366 17.9304 9.94099C17.9264 6.22639 14.9955 3.21616 11.3788 3.21207Z" fill="#F1CA2D"/>
<path d="M11.3788 5.33777C11.1883 5.33777 11.0339 5.49632 11.0339 5.69194C11.0339 5.88756 11.1883 6.04611 11.3788 6.04611C13.4726 6.04863 15.1693 7.79131 15.1718 9.94176C15.1718 10.1373 15.3261 10.2959 15.5166 10.2959C15.7071 10.2959 15.8615 10.1374 15.8615 9.94176C15.8586 7.40024 13.8533 5.3407 11.3788 5.33777Z" fill="#F1CA2D"/>
<path d="M11.3788 7.46249C11.1883 7.46249 11.0339 7.62099 11.0339 7.81655C11.0339 8.01211 11.1883 8.17062 11.3788 8.17062C12.3305 8.17178 13.1017 8.96365 13.1029 9.94084C13.1029 10.1364 13.2572 10.2949 13.4477 10.2949C13.6382 10.2949 13.7925 10.1364 13.7925 9.94084C13.791 8.57269 12.7112 7.46402 11.3788 7.46249Z" fill="#F1CA2D"/>
<path d="M9.65456 17.7331C9.57991 17.7332 9.5073 17.7084 9.44765 17.6622C6.68148 15.5316 3.64465 11.3937 3.51672 11.2167C3.44282 11.1154 3.42708 10.9814 3.47547 10.865C3.52387 10.7487 3.62903 10.6677 3.75133 10.6525C3.87363 10.6374 3.99453 10.6905 4.06843 10.7917C4.09914 10.8338 7.17495 15.0259 9.86143 17.0956C9.98018 17.187 10.0286 17.3463 9.98166 17.4909C9.93475 17.6355 9.80299 17.7331 9.65456 17.7331Z" fill="#F1CA2D"/>
<path d="M10.6891 18.4404C10.8795 18.4404 11.0339 18.282 11.0339 18.0867C11.0339 17.8914 10.8795 17.733 10.6891 17.733C10.4986 17.733 10.3442 17.8914 10.3442 18.0867C10.3442 18.282 10.4986 18.4404 10.6891 18.4404Z" fill="#F1CA2D"/>
</svg>

<svg width="20" height="22" fill="none" xmlns="http://www.w3.org/2000/svg"><path d="M5.615 3.473 6.89 5.435c.253.39.17.916-.19 1.204L5.13 7.892A.908.908 0 0 0 4.9 9.03c.46.85.896 1.852 3.055 4.072 2.16 2.22 3.138 2.666 3.966 3.139a.854.854 0 0 0 1.109-.236l1.22-1.61a.858.858 0 0 1 1.172-.196l1.97 1.349 2.218 1.518a.911.911 0 0 1 .264 1.208l-1.05 1.798c-.28.486-.73.844-1.258.998-1.746.492-5.598.592-11.771-5.749C-.377 8.982-.281 5.026.198 3.232a2.19 2.19 0 0 1 .972-1.291L2.92.86a.86.86 0 0 1 1.176.272l1.518 2.34Z" fill="#F6A21E"/><path d="M11.379 3.212a.35.35 0 0 0-.345.354.35.35 0 0 0 .345.354c3.236.004 5.858 2.697 5.862 6.021a.35.35 0 0 0 .345.354.35.35 0 0 0 .344-.354c-.004-3.715-2.934-6.725-6.551-6.729ZM11.379 5.338a.35.35 0 0 0-.345.354.35.35 0 0 0 .345.354c2.094.003 3.79 1.745 3.793 3.896a.35.35 0 0 0 .345.354.35.35 0 0 0 .345-.354c-.003-2.542-2.009-4.601-4.483-4.604Z" fill="#F1CA2D"/><path d="M11.379 7.462a.35.35 0 0 0-.345.355.35.35 0 0 0 .345.354c.952 0 1.723.793 1.724 1.77a.35.35 0 0 0 .345.354.35.35 0 0 0 .345-.354c-.002-1.368-1.082-2.477-2.414-2.479ZM9.655 17.733a.337.337 0 0 1-.207-.07c-2.767-2.131-5.803-6.27-5.931-6.446a.362.362 0 0 1-.042-.352.341.341 0 0 1 .593-.073c.031.042 3.107 4.234 5.793 6.304a.36.36 0 0 1 .12.395.346.346 0 0 1-.326.242ZM10.69 18.44a.35.35 0 0 0 .344-.353.35.35 0 0 0-.345-.354.35.35 0 0 0-.345.354.35.35 0 0 0 .345.353Z" fill="#F1CA2D"/></svg>
